X:1
T:Title
%%score { ( 1 3 ) | ( 2 4 ) }
L:1/8
M:4/4
K:Eb
V:1 treble nm="Grand Piano"
V:3 treble 
V:2 bass 
V:4 bass 
V:1
 z4 z2[Q:1/4=100] [B,EG]2 | [EGB]3 [DFB] [CEA]2 [B,EG]2 | [A,DF]4 [G,E]2 [G,DE]2 | %3
 [CE]2 [CA]2 [Ec]2 [Dc]2 |[M:3/4] B6 |[M:1/4] B2 |[M:4/4] e3 B c2 B2 | B4 A2 [FA]2 | z2 [EG]2 z4 | %9
[M:3/4] G6 |[M:1/4] G2 |[M:4/4] A3 A [DG]2 [DF]2 | E2 F2 G2 B2 | _d3 d c2 B2 |[M:3/4] A2 B2 c2 | %15
[M:1/4] B2 |[M:4/4] e3 d c2 B2 |[M:9/8] B3 z3 z3 |[M:4/4] z4 z2 .B2 | %19
[M:7/8] [B,DG]3 [A,DF] [G,E]3 |] %20
V:2
 z4 z2 E,2 | E,3 E, E,2 E,2 | B,,4 C,2 B,,2 | [A,,A,]2 [A,,A,]2 [A,,E,]2 [A,,F,]2 | %4
[M:3/4] [E,G,E]6 |[M:1/4] [F,A,D]2 |[M:4/4] [G,B,E]3 [G,E] [A,CE]2 [G,C=E]2 | %7
 [F,CF]4 [F,CF]2 [D,B,]2 | [E,B,]2 .[C,C]2 [D,=A,D]2 [D,CD]2 |[M:3/4] [G,B,D]6 |[M:1/4] [G,B,D]2 | %11
[M:4/4] [F,B,D]3 [F,B,D] [B,,B,]2 [B,,A,]2 | [E,G,]2 [E,A,E]2 [E,B,E]2 [E,G,E]2 | %13
 [E,G,E]3 [E,B,E] [E,E]2 [E,_DE]2 |[M:3/4] [F,CE]2 [G,B,E]2 [A,E]2 |[M:1/4] [A,B,D]2 | %16
[M:4/4] [G,B,E]3 [G,B,E] [A,E]2 [G,B,E]2 |[M:9/8] .[F,E]3 [F,CE] [G,=B,D]2- [G,B,D] C,2 | %18
[M:4/4] z4 z2 .G,2 |[M:7/8] B,,3 B,, E,3 |] %20
V:3
 x8 | x8 | x8 | x8 |[M:3/4] x6 |[M:1/4] x2 |[M:4/4] x8 | x8 | [EG]2 z B, G2 _G2 |[M:3/4] x6 | %10
[M:1/4] x2 |[M:4/4] x8 | x8 | x8 |[M:3/4] x6 |[M:1/4] x2 |[M:4/4] x8 |[M:9/8] z2 D A G2- G [CEG]2 | %18
[M:4/4] [CEB]3 [CEA] [B,EG]2 E-[EG] |[M:7/8] x7 |] %20
V:4
 x8 | x8 | x8 | x8 |[M:3/4] x6 |[M:1/4] x2 |[M:4/4] x8 | x8 | x8 |[M:3/4] x6 |[M:1/4] x2 | %11
[M:4/4] x8 | x8 | x8 |[M:3/4] x6 |[M:1/4] x2 |[M:4/4] x8 |[M:9/8] x9 | %18
[M:4/4] A,,3 A,, B,,2 B,,-[B,,B,] |[M:7/8] x7 |] %20

